X:1
T:Jasus Christus unser Heyland
T:Martin Luther
T:Source : Harmonia-Cantionum Ecclesiasticarum---Leipzig---F.Schnelboltz---1597. Editor : André Vierendeels (05/12/14).
T:Jesus Christus unser Heyland
C:Martin Luther
%%score [ 1 2 3 4 ]
L:1/8
Q:1/4=120
M:2/2
K:F
V:1 treble nm="Cantus" snm="C"
V:2 treble nm="Altus" snm="A"
V:3 treble-8 nm="Tenor" snm="T"
V:4 bass nm="Bassus" snm="B"
V:1
 G4 G4 | F2 G2 A2 G2 | F4 D4 | F2 G2 A4 | G2 F2 G4 | B4 A2 G2 |"^#" A4 G2 G2 | F2 G2 A2 G2 | %8
w: Je- sus|Chri- stus un- ser|Hey- land,|der den Todt|ü- ber- wand,|ist auff- er-|stan- den, die|Sünd hat er ge-|
w: Der ohn|Sün- de war ge-|bo- ren,|trug für uns|Got- tes zorn,|hat uns ver-|soh- net das|uns Gott sein Huld|
w: Tod, Sünd,|Teuf- fel, Le- ben|und Gnad,|alls in Hän-|den er hat:|er kan er-|ret- ten al-|le die zu ihm|
 F4 D4 | G4 G4 | A3 G F2 E2 | D8 |] %12
w: fan- gen.|Ky- rie-|lei- * * *|son.|
w: gön- ner.||||
w: tre- ten,||||
V:2
 D4 D4 | D2 B,2 D2 D2 | D4 F4 | F2 E2 F4 | D2 D2 D4 | G4 F2 G2- | G2 F2 G2 D2 | D2 D2 F2 D2 | %8
w: Je- sus|Chri- stus un- ser|Hey- land,|der den Todt|ü- ber- wand,|ist auff- er-|stan- * den, die|Sünd hat er ge-|
w: Der ohn|Sün- de war ge-|bo- ren,|trug für uns|Got- tes zorn,|hat uns ver-|* soh- net das|uns Gott sein Huld|
w: Tod, Sünd,|Teuf- fel, Le- ben|und Gnad,|alls in Hän-|den er hat:|er kan er-|* ret- ten al-|le die zu ihm|
 D4 D4 | D4 D4 | F3 E D2 ^C2 | D8 |] %12
w: fan- gen.|Ky- rie|lei- * * *|son.|
w: gön- ner.||||
w: tre- ten.||||
V:3
 G4 B4 | A2 G2 ^F2 G2 | A4 B4 | c2 c2 c4 | B2 A2 B4 | d4 d2 B2 | d4 d2 B2 | A2 B2 c2 B2 | A4 B4 | %9
w: Je- sus|Chri- stus un- ser|Hey- land,|der den Todt|ü- ber- wand,|ist auff- er-|stan- den, die|Sünd hat er ge-|fan- gen.|
w: Der ohn|Sün- de war ge-|bo- ren,|trug für uns|Got- tes zorn,|hat uns ver-|soh- net das|uns Gott sein Huld|gön- ner.|
w: Tod, Sünd,|Teuf- fel, Le- ben|und Gnad,|alls in Hän-|den er hat:|er kan er-|ret- ten al-|le die zu ihm|tre- ten.|
 B4 B4 | c4 A4 | A8 |] %12
w: Ky- rie-|lei- *|son.|
w: |||
w: |||
V:4
 G,4 G,4 | D,2 _E,2 D,2 G,,2 | D,4 B,,4 | F,2 C,2 F,4 | G,2 D,2 G,,4 | G,4 D,2 _E,2 | D,4 G,2 G,2 | %7
w: Je- sus|Chri- stus un- ser|Hey- land,|der den Todt|ü- ber- wand,|ist auff- er-|stan- den, die|
w: Der ohn|Sün- de war ge-|bo- ren,|trug für uns|Got- tes zorn,|hat uns ver-|soh- net das|
w: Tod, Sünd,|Teuf- fel, Le- ben|und Gnad,|alls in Hän-|den er hat:|er kan er-|ret- ten al-|
 D,2 G,2 F,2 G,2 | D,4 B,,4 | G,,4 G,4 | F,3 C, D,2 A,,2 | D,8 |] %12
w: Sünd hat er ge-|fan- gen.|Ky- rie|lei- * * *|son.|
w: uns Gott sein Huld|gön- ner.||||
w: le die zu ihm|tre- ten.||||

